X: 27510
T: Mom's
R: jig
M: 6/8
K: Adorian
|:EAA AGA|BAA A2G|EAA ABc|~B3 BAG|
EAA AGA|BAA A2f|~g3 gfe|dBG BAG:|
|:AaA ~g3|fed edB|AaA gfg|dBG GAB|
AaA ~g3|fed edB|ABc Bcd|1 cde dcB:|2 edc BAG||

